docs/img/svg/footer__contacts-telegram.svg

<svg width="24" height="24" viewBox="0 0 24 24" fill="none" xmlns="http://www.w3.org/2000/svg">
<path fill-rule="evenodd" clip-rule="evenodd" d="M24 3.5V20.5C24 22.433 22.433 24 20.5 24H3.5C1.567 24 0 22.433 0 20.5V3.5C0 1.567 1.567 0 3.5 0H20.5C22.433 0 24 1.567 24 3.5ZM5.61146 10.786C4.73815 11.1372 4.78954 12.3905 5.68867 12.669L7.50198 13.2307C7.78321 13.3178 8.08855 13.2766 8.33659 13.118L14.5512 9.14407C14.7526 9.01528 14.9694 9.28447 14.8006 9.45378L10.7237 13.5431C10.3201 13.948 10.3374 14.6083 10.7618 14.9914L14.7882 18.6262C15.3633 19.1454 16.285 18.8414 16.4384 18.0819L18.6328 7.21972C18.7904 6.43964 18.0179 5.79698 17.2795 6.0939L5.61146 10.786Z" fill="white"/>
</svg>

<svg width="24" height="24" fill="none" xmlns="http://www.w3.org/2000/svg"><path fill-rule="evenodd" clip-rule="evenodd" d="M24 3.5v17a3.5 3.5 0 01-3.5 3.5h-17A3.5 3.5 0 010 20.5v-17A3.5 3.5 0 013.5 0h17A3.5 3.5 0 0124 3.5zM5.611 10.786c-.873.351-.821 1.604.078 1.883l1.813.562a1 1 0 00.835-.113l6.214-3.974c.202-.129.418.14.25.31l-4.077 4.09a1 1 0 00.038 1.447l4.026 3.635a1 1 0 001.65-.544L18.633 7.22a1 1 0 00-1.354-1.126L5.611 10.786z" fill="#fff"/></svg>
